X:1
T:Title
%%score { 1 | 2 }
L:1/8
M:4/4
K:G
V:1 treble nm="Grand Piano"
V:2 bass 
V:1
 z4 z2 z[Q:1/4=86] D | D2 EF G2 [CFA][B,GB] | [EGc]2 [DFB]>[DF_B] [DFB]<[DG=B]- [DGB]>[^D_B=B] | %3
 [EGB]2 [CFA][B,EG] [B,EG]2 [B,^DF][B,EG] | [^CEA]2 [CE][EG] F2 ED | D2 EF G2 [FA][GB] | %6
 [Ec]2 [^DB]>[FA] [FA]<[EG]- [EG]>[=FG] | [Ee]2 [Ed]>[EB] [Ec]2 [A,E][DEB] | %8
[M:7/8] [CFA]2 [CD] [CFA] [B,DG]3 |[M:1/8] [DGB] |[M:4/4] [DBd]2 [DGB][DEG] [DFA]2 [CDF][A,CE] | %11
 [A,CD][CDF][CFA][DAc] [DGB]2 [B,DG][DGB] | [DBd]2 [DGB][DEG] [DF]2 [DF][DEG] | %13
 [^CGA]2 [CGA]>[CGB] [DFA]3 D | D2 EF G2 [FA][GB] | [Ec]2 [^DB]>[FA] [FA]<[EG]- [EG]>[=FG] | %16
 [Ee]2 [Ed]>[EB] [Ec]2 [A,E][DEB] |[M:7/8] [CFA]2 [CD] [CDA] [G,B,DG]3 |] %18
V:2
 z4 z2 z [G,B,] | [G,B,]2 [G,B,D][F,B,D] [E,B,E]2 E,E, | A,,2 D,>D, G,<G,- G,>F, | %3
 E,2 E,E, E,2 E,E, | A,,2 [A,,A,][A,,A,] [D,A,D]2 [F,A,C][F,A,C] | %5
 [G,B,]2 [G,B,D][F,B,D] [E,B,E]2 [E,C][E,B,] | %6
 [A,,A,]2 [B,,F,]>[B,,B,] [E,B,]<[E,B,]- [E,B,]>[D,B,] | [C,G,]2 [B,,^G,]>[B,,G,] [A,,A,]2 C,C, | %8
[M:7/8] D,2 D, D, G,3 |[M:1/8] G, |[M:4/4] G,2 G,G, D,2 D,D, | D,D,D,D, G,2 G,G, | %12
 G,2 G,G, A,2 A,A, | A,,2 A,,>A,, D,3 [F,A,C] | [G,B,]2 [G,B,D][F,B,D] [E,B,E]2 [E,C][E,B,] | %15
 [A,,A,]2 [B,,F,]>[B,,B,] [E,B,]<[E,B,]- [E,B,]>[D,B,] | [C,G,]2 [B,,^G,]>[B,,G,] [A,,A,]2 C,C, | %17
[M:7/8] D,2 D, D, G,,3 |] %18

